Newaita-dark/actions/16/edit-clone.svg

<svg height="16" viewBox="0 0 16 16" width="16" xmlns="http://www.w3.org/2000/svg"><g fill="#e0e0e0"><path d="m5.953125 2.769531c-.730469 0-1.324219.589844-1.324219 1.324219v9.261719c0 .734375.59375 1.324219 1.324219 1.324219h3.308594v-1.324219h-2.648438c-.363281 0-.652343-.296875-.660156-.660157v-7.941406c0-.363281.296875-.660156.660156-.660156h2.648438v-.003906h1.054687l2.257813 2.261718v1.050782s0 0-.003907 0v1.324218h1.324219v-.664062c0-.03125 0-.058594-.003906-.089844v-1.894531c0-.175781-.066406-.339844-.191406-.464844l-2.644531-2.644531c-.125-.125-.292969-.195312-.46875-.195312h-1.324219v-.003907zm0 0"/><path d="m3.308594.785156c-.734375 0-1.316406.589844-1.324219 1.324219v8.601563c0 .730468.589844 1.320312 1.324219 1.320312h.660156v-1.320312c-.367188 0-.65625-.296876-.660156-.664063v-7.277344c0-.363281.292968-.660156.660156-.660156h2.644531v-.003906h1.054688l.003906.003906h1.863281l-1.128906-1.125c-.121094-.125-.289062-.195313-.464844-.195313h-1.328125v-.003906zm0 0"/><path d="m12.570312 10.046875c-.734374 0-1.324218.589844-1.324218 1.324219v.660156c-.367188 0-.660156.296875-.660156.664062v1.320313c0 .367187.292968.664063.660156.664063h2.644531c.367187 0 .664063-.296876.664063-.664063v-1.320313c0-.367187-.296876-.664062-.664063-.664062v-.660156c0-.734375-.589844-1.324219-1.320313-1.324219zm0 .664063c.363282 0 .660157.292968.660157.660156v.660156h-1.324219v-.660156c0-.367188.296875-.660156.664062-.660156zm0 0"/></g></svg>

<?xml version="1.0" encoding="UTF-8"?>
<svg xmlns="http://www.w3.org/2000/svg" xmlns:xlink="http://www.w3.org/1999/xlink" width="16px" height="16px" viewBox="0 0 16 16" version="1.1">
<g id="surface1">
<path style=" stroke:none;fill-rule:nonzero;fill:rgb(87.843138%,87.843138%,87.843138%);fill-opacity:1;" d="M 5.953125 2.769531 C 5.222656 2.769531 4.628906 3.359375 4.628906 4.09375 L 4.628906 13.355469 C 4.628906 14.089844 5.222656 14.679688 5.953125 14.679688 L 9.261719 14.679688 L 9.261719 13.355469 L 6.613281 13.355469 C 6.25 13.355469 5.960938 13.058594 5.953125 12.695312 L 5.953125 4.753906 C 5.953125 4.390625 6.25 4.09375 6.613281 4.09375 L 9.261719 4.09375 L 9.261719 4.089844 L 10.316406 4.089844 L 12.574219 6.351562 L 12.574219 7.402344 C 12.574219 7.402344 12.574219 7.402344 12.570312 7.402344 L 12.570312 8.726562 L 13.894531 8.726562 L 13.894531 8.0625 C 13.894531 8.03125 13.894531 8.003906 13.890625 7.972656 L 13.890625 6.078125 C 13.890625 5.902344 13.824219 5.738281 13.699219 5.613281 L 11.054688 2.96875 C 10.929688 2.84375 10.761719 2.773438 10.585938 2.773438 L 9.261719 2.773438 L 9.261719 2.769531 Z M 5.953125 2.769531 "/>
<path style=" stroke:none;fill-rule:nonzero;fill:rgb(87.843138%,87.843138%,87.843138%);fill-opacity:1;" d="M 3.308594 0.785156 C 2.574219 0.785156 1.992188 1.375 1.984375 2.109375 L 1.984375 10.710938 C 1.984375 11.441406 2.574219 12.03125 3.308594 12.03125 L 3.96875 12.03125 L 3.96875 10.710938 C 3.601562 10.710938 3.3125 10.414062 3.308594 10.046875 L 3.308594 2.769531 C 3.308594 2.40625 3.601562 2.109375 3.96875 2.109375 L 6.613281 2.109375 L 6.613281 2.105469 L 7.667969 2.105469 L 7.671875 2.109375 L 9.535156 2.109375 L 8.40625 0.984375 C 8.285156 0.859375 8.117188 0.789062 7.941406 0.789062 L 6.613281 0.789062 L 6.613281 0.785156 Z M 3.308594 0.785156 "/>
<path style=" stroke:none;fill-rule:nonzero;fill:rgb(87.843138%,87.843138%,87.843138%);fill-opacity:1;" d="M 12.570312 10.046875 C 11.835938 10.046875 11.246094 10.636719 11.246094 11.371094 L 11.246094 12.03125 C 10.878906 12.03125 10.585938 12.328125 10.585938 12.695312 L 10.585938 14.015625 C 10.585938 14.382812 10.878906 14.679688 11.246094 14.679688 L 13.890625 14.679688 C 14.257812 14.679688 14.554688 14.382812 14.554688 14.015625 L 14.554688 12.695312 C 14.554688 12.328125 14.257812 12.03125 13.890625 12.03125 L 13.890625 11.371094 C 13.890625 10.636719 13.300781 10.046875 12.570312 10.046875 Z M 12.570312 10.710938 C 12.933594 10.710938 13.230469 11.003906 13.230469 11.371094 L 13.230469 12.03125 L 11.90625 12.03125 L 11.90625 11.371094 C 11.90625 11.003906 12.203125 10.710938 12.570312 10.710938 Z M 12.570312 10.710938 "/>
</g>
</svg>
